X: 27935
T: Mountain Top, The
R: hornpipe
M: 4/4
K: Gminor
|:FE|"Bb"DFBc d2cd|"Eb"edcB G2FE|"Bb"DFBc dBAB|gfdB "F7"c2FE|
"Bb"DFBc d2cd|"Eb"edcB G2FE|"Bb"DFBd "F7"cBAc|"Bb"B2d2 B2:|
|:Bc|dBAB GBFB|DFBc dBAB|gBfB "Eb"edcB|"Cm"GccB "F7"ABcA|
"Bb"dBAB GBFB|DFBc dBAB|gBfB "Eb"edcB|"F7"AFGA "Bb"B2:|

